X: 231983
T: Welcome to Ireland HP
S: "Roche Collection of Traditional Irish Music" [III/62/178]
L: 1/8
M: 4/4
R: hornpipe
K: D
dB | AFEF D2 FD | EFAB dcde | fedB AFEF | DFAF E2 dB |
AFEF D2 FD | EFAB dcde | fedB AFDF | E2 EE E2 :|
DE | FAAB defe | dBAB d2 de | fedB AFEF | DEFG A2 dB |
AFEF D2 FD | EFAB dcde | fedB AFDF | E2 EE E2 :|
